X: 25255
T: Man From The Hill, The
R: reel
M: 4/4
K: Dmajor
|:d2fd Aded|(3dcd ef gfec|dAfd AfdA|BDEF GABc|
d2fd Adfd|(3dcd ef gfed|fedc dcBA|BDEF GABc:|
|:d2ad bdad|(3dcd ad cdec|d2ad bdad|BDEF GABc|
d2ad bdad|(3dcd ad cdec|dcBA BAGF|GDEF GABc:|

